styles/3/Numix/256x256/actions/default-document-open-recent.svg

<svg xmlns="http://www.w3.org/2000/svg" xmlns:xlink="http://www.w3.org/1999/xlink" width="256px" height="256px" viewBox="0 0 256 256" version="1.1">
<g id="surface1">
<path style=" stroke:none;fill-rule:nonzero;fill:rgb(91.764706%,56.470588%,21.176471%);fill-opacity:1;" d="M 24 48 L 232 48 L 232 128 L 24 128 Z M 24 48 "/>
<path style=" stroke:none;fill-rule:nonzero;fill:rgb(91.764706%,56.470588%,21.176471%);fill-opacity:1;" d="M 48 48 C 48 40 48 32 59.632812 32 L 100.367188 32 C 112 32 112 40 112 48 L 112 56 L 48 56 Z M 48 48 "/>
<path style=" stroke:none;fill-rule:nonzero;fill:rgb(58.431373%,59.607843%,62.352941%);fill-opacity:1;" d="M 40 64 L 216 64 L 216 128 L 40 128 Z M 40 64 "/>
<path style=" stroke:none;fill-rule:nonzero;fill:rgb(84.705882%,84.705882%,85.490196%);fill-opacity:1;" d="M 56 56 L 208 56 L 208 160 L 56 160 Z M 56 56 "/>
<path style=" stroke:none;fill-rule:nonzero;fill:rgb(97.647059%,97.647059%,97.647059%);fill-opacity:1;" d="M 48 72 L 200 72 L 200 176 L 48 176 Z M 48 72 "/>
<path style=" stroke:none;fill-rule:nonzero;fill:rgb(80%,80%,80%);fill-opacity:1;" d="M 56 80 L 192 80 L 192 88 L 56 88 Z M 56 80 "/>
<path style=" stroke:none;fill-rule:nonzero;fill:rgb(94.901961%,73.333333%,39.215686%);fill-opacity:1;" d="M 8 112 L 248 112 L 230.859375 224 L 25.140625 224 Z M 8 112 "/>
<path style=" stroke:none;fill-rule:nonzero;fill:rgb(80%,80%,80%);fill-opacity:1;" d="M 56 96 L 192 96 L 192 104 L 56 104 Z M 56 96 "/>
<path style=" stroke:none;fill-rule:evenodd;fill:rgb(52.156863%,60%,0%);fill-opacity:1;" d="M 232.117188 183.179688 C 232.492188 201.828125 222.65625 219.21875 206.382812 228.65625 C 190.132812 238.09375 169.992188 238.09375 153.71875 228.65625 C 137.445312 219.21875 127.617188 201.828125 128.007812 183.179688 C 127.617188 164.515625 137.445312 147.117188 153.71875 137.679688 C 169.992188 128.242188 190.132812 128.242188 206.382812 137.679688 C 222.65625 147.117188 232.492188 164.515625 232.117188 183.179688 Z M 232.117188 183.179688 "/>
<path style=" stroke:none;fill-rule:nonzero;fill:rgb(100%,100%,100%);fill-opacity:1;" d="M 208.53125 150.117188 C 207.429688 150.515625 206.492188 151.265625 205.867188 152.242188 L 177.492188 179.96875 L 159.78125 162.90625 C 159.070312 160.554688 156.84375 158.96875 154.367188 159.09375 C 151.90625 159.242188 149.867188 161.054688 149.40625 163.46875 C 148.96875 165.90625 150.257812 168.328125 152.53125 169.304688 L 173.867188 190.640625 C 175.90625 192.554688 179.070312 192.554688 181.117188 190.640625 L 213.117188 158.640625 C 214.367188 156.992188 214.53125 154.742188 213.554688 152.90625 C 212.570312 151.078125 210.59375 149.992188 208.53125 150.117188 Z M 208.53125 150.117188 "/>
</g>
</svg>

<?xml version="1.0" encoding="UTF-8" standalone="no"?>
<svg
   xmlns:dc="http://purl.org/dc/elements/1.1/"
   xmlns:cc="http://creativecommons.org/ns#"
   xmlns:rdf="http://www.w3.org/1999/02/22-rdf-syntax-ns#"
   xmlns:svg="http://www.w3.org/2000/svg"
   xmlns="http://www.w3.org/2000/svg"
   xmlns:sodipodi="http://sodipodi.sourceforge.net/DTD/sodipodi-0.dtd"
   xmlns:inkscape="http://www.inkscape.org/namespaces/inkscape"
   width="256px"
   height="256px"
   viewBox="0 0 256 256"
   version="1.1"
   id="svg3041"
   inkscape:version="0.48.5 r10040"
   sodipodi:docname="blue-document-open-recent.svg">
  <metadata
     id="metadata3068">
    <rdf:RDF>
      <cc:Work
         rdf:about="">
        <dc:format>image/svg+xml</dc:format>
        <dc:type
           rdf:resource="http://purl.org/dc/dcmitype/StillImage" />
      </cc:Work>
    </rdf:RDF>
  </metadata>
  <defs
     id="defs3066" />
  <sodipodi:namedview
     pagecolor="#ffffff"
     bordercolor="#666666"
     borderopacity="1"
     objecttolerance="10"
     gridtolerance="10"
     guidetolerance="10"
     inkscape:pageopacity="0"
     inkscape:pageshadow="2"
     inkscape:window-width="668"
     inkscape:window-height="480"
     id="namedview3064"
     showgrid="false"
     inkscape:zoom="0.921875"
     inkscape:cx="128"
     inkscape:cy="128"
     inkscape:window-x="0"
     inkscape:window-y="0"
     inkscape:window-maximized="0"
     inkscape:current-layer="svg3041" />
  <path
     inkscape:connector-curvature="0"
     id="path3044"
     d="m 24,48 208,0 0,80 -208,0 z m 0,0"
     style="fill:#ea9036;fill-opacity:1;fill-rule:nonzero;stroke:none" />
  <path
     inkscape:connector-curvature="0"
     id="path3046"
     d="m 48,48 c 0,-8 0,-16 11.632812,-16 l 40.734378,0 C 112,32 112,40 112,48 l 0,8 -64,0 z m 0,0"
     style="fill:#ea9036;fill-opacity:1;fill-rule:nonzero;stroke:none" />
  <path
     inkscape:connector-curvature="0"
     id="path3048"
     d="m 40,64 176,0 0,64 -176,0 z m 0,0"
     style="fill:#94979e;fill-opacity:1;fill-rule:nonzero;stroke:none" />
  <path
     inkscape:connector-curvature="0"
     id="path3050"
     d="m 56,56 152,0 0,104 -152,0 z m 0,0"
     style="fill:#d7d7d9;fill-opacity:1;fill-rule:nonzero;stroke:none" />
  <path
     inkscape:connector-curvature="0"
     id="path3052"
     d="m 48,72 152,0 0,104 -152,0 z m 0,0"
     style="fill:#f8f8f8;fill-opacity:1;fill-rule:nonzero;stroke:none" />
  <path
     inkscape:connector-curvature="0"
     id="path3054"
     d="m 56,80 136,0 0,8 -136,0 z m 0,0"
     style="fill:#cccccc;fill-opacity:1;fill-rule:nonzero;stroke:none" />
  <path
     inkscape:connector-curvature="0"
     id="path3056"
     d="m 8,112 240,0 -17.14063,112 -205.718745,0 z m 0,0"
     style="fill:#f2bb64;fill-opacity:1;fill-rule:nonzero;stroke:none" />
  <path
     inkscape:connector-curvature="0"
     id="path3058"
     d="m 56,96 136,0 0,8 -136,0 z m 0,0"
     style="fill:#cccccc;fill-opacity:1;fill-rule:nonzero;stroke:none" />
  <path
     inkscape:connector-curvature="0"
     id="path3060"
     d="m 232.11719,183.17969 c 0.375,18.64843 -9.46094,36.03906 -25.73438,45.47656 -16.25,9.4375 -36.39062,9.4375 -52.66406,0 -16.27344,-9.4375 -26.10156,-26.82813 -25.71094,-45.47656 -0.39062,-18.66407 9.4375,-36.0625 25.71094,-45.5 16.27344,-9.4375 36.41406,-9.4375 52.66406,0 16.27344,9.4375 26.10938,26.83593 25.73438,45.5 z m 0,0"
     style="fill:#859900;fill-opacity:1;fill-rule:evenodd;stroke:none" />
  <path
     inkscape:connector-curvature="0"
     id="path3062"
     d="m 208.53125,150.11719 c -1.10156,0.39843 -2.03906,1.14843 -2.66406,2.125 l -28.375,27.72656 -17.71094,-17.0625 c -0.71094,-2.35156 -2.9375,-3.9375 -5.41406,-3.8125 -2.46094,0.14844 -4.5,1.96094 -4.96094,4.375 -0.4375,2.4375 0.85156,4.85937 3.125,5.83594 l 21.33594,21.33593 c 2.03906,1.91407 5.20312,1.91407 7.25,0 l 32,-32 c 1.25,-1.64843 1.41406,-3.89843 0.4375,-5.73437 -0.98438,-1.82813 -2.96094,-2.91406 -5.02344,-2.78906 z m 0,0"
     style="fill:#ffffff;fill-opacity:1;fill-rule:nonzero;stroke:none" />
</svg>
